svgs/sharp-solid/list-music.svg

<svg xmlns="http://www.w3.org/2000/svg" viewBox="0 0 512 512"><!--! Font Awesome Pro 6.6.0 by @fontawesome - https://fontawesome.com License - https://fontawesome.com/license (Commercial License) Copyright 2024 Fonticons, Inc. --><path d="M512 .4l0 44.4 0 64 0 23.1-21.9 7.3L416 163.9 416 432c0 44.2-50.1 80-112 80s-112-35.8-112-80s50.1-80 112-80c17.2 0 33.5 2.8 48 7.7l0-218.9 0-64 0-23.1 21.9-7.3 96-32L512 .4zM32 64l224 0 32 0 0 64-32 0L32 128 0 128 0 64l32 0zm0 128l224 0 32 0 0 64-32 0L32 256 0 256l0-64 32 0zm0 128l96 0 32 0 0 64-32 0-96 0L0 384l0-64 32 0z"/></svg>

<svg xmlns="http://www.w3.org/2000/svg" viewBox="0 0 512 512"><!--! Font Awesome Pro 6.4.0 by @fontawesome - https://fontawesome.com License - https://fontawesome.com/license (Commercial License) Copyright 2023 Fonticons, Inc. --><path d="M512 .4V44.8v64 23.1l-21.9 7.3L416 163.9V432c0 44.2-50.1 80-112 80s-112-35.8-112-80s50.1-80 112-80c17.2 0 33.5 2.8 48 7.7V140.8v-64V53.7l21.9-7.3 96-32L512 .4zM32 64H256h32v64H256 32 0V64H32zm0 128H256h32v64H256 32 0V192H32zm0 128h96 32v64H128 32 0V320H32z"/></svg>
